src/views/components/review-list/images/review-image2.svg

<svg width="36" height="38" viewBox="0 0 36 38" fill="none" xmlns="http://www.w3.org/2000/svg">
<path d="M31.9688 26V21.9688H28.0312V26H31.9688ZM31.9688 33.9688V30.0312H28.0312V33.9688H31.9688ZM19.9688 9.96875V6.03125H16.0312V9.96875H19.9688ZM19.9688 18.0312V14H16.0312V18.0312H19.9688ZM19.9688 26V21.9688H16.0312V26H19.9688ZM19.9688 33.9688V30.0312H16.0312V33.9688H19.9688ZM7.96875 18.0312V14H4.03125V18.0312H7.96875ZM7.96875 26V21.9688H4.03125V26H7.96875ZM7.96875 33.9688V30.0312H4.03125V33.9688H7.96875ZM24 18.0312H36V38H0V9.96875H12V6.03125L18 0.03125L24 6.03125V18.0312Z" fill="url(#paint0_linear)"/>
<defs>
<linearGradient id="paint0_linear" x1="18" y1="-4" x2="18" y2="44" gradientUnits="userSpaceOnUse">
<stop stop-color="#BC9CFF"/>
<stop offset="1" stop-color="#8BA4F9"/>
</linearGradient>
</defs>
</svg>

<svg width="36" height="38" fill="none" xmlns="http://www.w3.org/2000/svg"><path d="M31.969 26v-4.031H28.03V26h3.938Zm0 7.969V30.03H28.03v3.938h3.938Zm-12-24V6.03H16.03V9.97h3.938Zm0 8.062V14H16.03v4.031h3.938Zm0 7.969v-4.031H16.03V26h3.938Zm0 7.969V30.03H16.03v3.938h3.938Zm-12-15.938V14H4.03v4.031H7.97Zm0 7.969v-4.031H4.03V26H7.97Zm0 7.969V30.03H4.03v3.938H7.97ZM24 18.03h12V38H0V9.969h12V6.03l6-6 6 6v12Z" fill="url(#a)"/><defs><linearGradient id="a" x1="18" y1="-4" x2="18" y2="44" gradientUnits="userSpaceOnUse"><stop stop-color="#BC9CFF"/><stop offset="1" stop-color="#8BA4F9"/></linearGradient></defs></svg>
